src/socialMedia/discord-black.svg

<svg clip-rule="evenodd" fill-rule="evenodd" stroke-linejoin="round" stroke-miterlimit="2" viewBox="0 0 100 100" xmlns="http://www.w3.org/2000/svg"><g fill-rule="nonzero" transform="matrix(.484115 0 0 .484115 -10.2481 -13.8638)"><path d="m142.8 120.1c-5.7 0-10.2 4.9-10.2 11s4.6 11 10.2 11c5.7 0 10.2-4.9 10.2-11s-4.6-11-10.2-11zm-36.5 0c-5.7 0-10.2 4.9-10.2 11s4.6 11 10.2 11c5.7 0 10.2-4.9 10.2-11 .1-6.1-4.5-11-10.2-11z"/><path d="m191.4 36.9h-134c-11.3 0-20.5 9.2-20.5 20.5v134c0 11.3 9.2 20.5 20.5 20.5h113.4l-5.3-18.3 12.8 11.8 12.1 11.1 21.6 18.7v-177.8c-.1-11.3-9.3-20.5-20.6-20.5zm-38.6 129.5s-3.6-4.3-6.6-8c13.1-3.7 18.1-11.8 18.1-11.8-4.1 2.7-8 4.6-11.5 5.9-5 2.1-9.8 3.4-14.5 4.3-9.6 1.8-18.4 1.3-25.9-.1-5.7-1.1-10.6-2.6-14.7-4.3-2.3-.9-4.8-2-7.3-3.4-.3-.2-.6-.3-.9-.5-.2-.1-.3-.2-.4-.2-1.8-1-2.8-1.7-2.8-1.7s4.8 7.9 17.5 11.7c-3 3.8-6.7 8.2-6.7 8.2-22.1-.7-30.5-15.1-30.5-15.1 0-31.9 14.4-57.8 14.4-57.8 14.4-10.7 28-10.4 28-10.4l1 1.2c-18 5.1-26.2 13-26.2 13s2.2-1.2 5.9-2.8c10.7-4.7 19.2-5.9 22.7-6.3.6-.1 1.1-.2 1.7-.2 6.1-.8 13-1 20.2-.2 9.5 1.1 19.7 3.9 30.1 9.5 0 0-7.9-7.5-24.9-12.6l1.4-1.6s13.7-.3 28 10.4c0 0 14.4 25.9 14.4 57.8 0-.1-8.4 14.3-30.5 15z"/></g></svg>

<?xml version="1.0" encoding="UTF-8" standalone="no"?>
<!DOCTYPE svg PUBLIC "-//W3C//DTD SVG 1.1//EN" "http://www.w3.org/Graphics/SVG/1.1/DTD/svg11.dtd">
<svg width="100%" height="100%" viewBox="0 0 100 100" version="1.1" xmlns="http://www.w3.org/2000/svg" xmlns:xlink="http://www.w3.org/1999/xlink" xml:space="preserve" xmlns:serif="http://www.serif.com/" style="fill-rule:evenodd;clip-rule:evenodd;stroke-linejoin:round;stroke-miterlimit:2;">
    <g transform="matrix(0.484115,0,0,0.484115,-10.2481,-13.8638)">
        <path d="M142.8,120.1C137.1,120.1 132.6,125 132.6,131.1C132.6,137.2 137.2,142.1 142.8,142.1C148.5,142.1 153,137.2 153,131.1C153,125 148.4,120.1 142.8,120.1ZM106.3,120.1C100.6,120.1 96.1,125 96.1,131.1C96.1,137.2 100.7,142.1 106.3,142.1C112,142.1 116.5,137.2 116.5,131.1C116.6,125 112,120.1 106.3,120.1Z" style="fill-rule:nonzero;"/>
        <path d="M191.4,36.9L57.4,36.9C46.1,36.9 36.9,46.1 36.9,57.4L36.9,191.4C36.9,202.7 46.1,211.9 57.4,211.9L170.8,211.9L165.5,193.6L178.3,205.4L190.4,216.5L212,235.2L212,57.4C211.9,46.1 202.7,36.9 191.4,36.9ZM152.8,166.4C152.8,166.4 149.2,162.1 146.2,158.4C159.3,154.7 164.3,146.6 164.3,146.6C160.2,149.3 156.3,151.2 152.8,152.5C147.8,154.6 143,155.9 138.3,156.8C128.7,158.6 119.9,158.1 112.4,156.7C106.7,155.6 101.8,154.1 97.7,152.4C95.4,151.5 92.9,150.4 90.4,149C90.1,148.8 89.8,148.7 89.5,148.5C89.3,148.4 89.2,148.3 89.1,148.3C87.3,147.3 86.3,146.6 86.3,146.6C86.3,146.6 91.1,154.5 103.8,158.3C100.8,162.1 97.1,166.5 97.1,166.5C75,165.8 66.6,151.4 66.6,151.4C66.6,119.5 81,93.6 81,93.6C95.4,82.9 109,83.2 109,83.2L110,84.4C92,89.5 83.8,97.4 83.8,97.4C83.8,97.4 86,96.2 89.7,94.6C100.4,89.9 108.9,88.7 112.4,88.3C113,88.2 113.5,88.1 114.1,88.1C120.2,87.3 127.1,87.1 134.3,87.9C143.8,89 154,91.8 164.4,97.4C164.4,97.4 156.5,89.9 139.5,84.8L140.9,83.2C140.9,83.2 154.6,82.9 168.9,93.6C168.9,93.6 183.3,119.5 183.3,151.4C183.3,151.3 174.9,165.7 152.8,166.4Z" style="fill-rule:nonzero;"/>
    </g>
</svg>
